images/BZR.svg

<svg height="250" viewBox="0 0 250 250" width="250" xmlns="http://www.w3.org/2000/svg"><path d="m142.726562 216.648438c3.074219 3.078124 5.320313 6.886718 6.445313 11.132812l52.78125-30.46875c-3.078125-3.023438-5.320313-6.882812-6.492187-11.132812zm0 0" fill="#080a03"/><path d="m201.953125 52.6875-52.78125-30.46875c-1.171875 4.296875-3.421875 8.101562-6.445313 11.179688l52.78125 30.46875c1.125-4.296876 3.417969-8.105469 6.445313-11.179688zm0 0" fill="#080a03"/><path d="m55.371094 70.359375c0 3.078125-.535156 6.054687-1.609375 8.789063 11.324219 2.003906 23.289062 5.324218 35.449219 9.765624.535156-4.390624 1.121093-8.738281 1.804687-12.984374-12.304687-4.347657-24.464844-7.570313-35.988281-9.621094.246094 1.316406.34375 2.683594.34375 4.050781zm0 0" fill="#080a03"/><path d="m178.5625 125c12.304688-9.960938 23.195312-20.507812 32.179688-31.25-4.148438-1.5625-7.714844-4.199219-10.449219-7.570312-8.886719 10.546874-19.824219 20.949218-32.226563 30.714843-8.738281-6.445312-18.113281-12.546875-27.929687-18.210937-7.46875-4.300782-14.988281-8.253906-22.558594-11.816406-.585937 4.441406-1.121094 8.984374-1.511719 13.574218 5.90625 2.878906 11.765625 6.054688 17.625 9.421875 8.203125 4.738281 16.113282 9.816407 23.535156 15.136719-7.421874 5.324219-15.332031 10.351562-23.535156 15.136719-5.859375 3.371093-11.71875 6.496093-17.625 9.375.390625 4.589843.878906 9.132812 1.511719 13.574219 7.570313-3.5625 15.089844-7.519532 22.558594-11.816407 9.816406-5.664062 19.140625-11.765625 27.929687-18.210937 12.402344 9.765625 23.292969 20.164062 32.226563 30.710937 2.734375-3.367187 6.347656-6.003906 10.449219-7.566406-8.984376-10.695313-19.875-21.242187-32.179688-31.203125zm0 0" fill="#080a03"/><path d="m53.757812 170.851562c1.027344 2.734376 1.613282 5.664063 1.613282 8.789063 0 1.367187-.097656 2.734375-.34375 4.097656 11.574218-2 23.683594-5.273437 35.988281-9.617187-.683594-4.246094-1.320313-8.59375-1.804687-12.988282-12.160157 4.34375-24.074219 7.664063-35.453126 9.71875zm0 0" fill="#080a03"/><path d="m107.570312 125c0-31.054688 4.785157-60.644531 13.378907-84.621094-4.394531-.730468-8.449219-2.585937-11.769531-5.320312-9.324219 25.585937-14.5 57.082031-14.5 89.941406s5.175781 64.355469 14.5 89.890625c3.320312-2.734375 7.324218-4.585937 11.769531-5.320313-8.644531-23.925781-13.378907-53.515624-13.378907-84.570312zm0 0" fill="#080a03"/><g fill="#3ab26e"><path d="m133.691406 221.828125c-2.441406-1.757813-5.46875-2.734375-8.691406-2.734375-.097656 0-.195312 0-.292969 0-3.125.046875-6.003906 1.070312-8.398437 2.734375-1.171875.828125-2.246094 1.804687-3.125 2.929687-1.855469 2.292969-3.074219 5.125-3.320313 8.203126-.050781.4375-.050781.878906-.050781 1.316406 0 8.398437 6.835938 15.234375 15.238281 15.234375 8.394531 0 15.230469-6.785157 15.230469-15.234375 0-.4375-.046875-.878906-.046875-1.316406-.488281-4.59375-2.929687-8.59375-6.542969-11.132813zm0 0"/><path d="m213.234375 84.179688c.679687.34375 1.367187.585937 2.046875.78125.246094.097656.539062.148437.78125.195312.390625.097656.832031.195312 1.273438.242188.730468.101562 1.5625.195312 2.34375.195312 2.292968 0 4.492187-.535156 6.445312-1.414062 5.175781-2.441407 8.738281-7.714844 8.738281-13.769532 0-8.398437-6.785156-15.234375-15.183593-15.234375-3.226563 0-6.253907.976563-8.695313 2.734375-3.609375 2.488282-6.054687 6.542969-6.492187 11.183594-.050782.4375-.050782.875-.050782 1.367188 0 2.878906.78125 5.515624 2.199219 7.8125 1.515625 2.539062 3.808594 4.585937 6.59375 5.90625zm0 0"/><path d="m226.125 165.820312c-1.953125-.925781-4.152344-1.414062-6.445312-1.414062-.488282 0-.976563 0-1.417969.097656-.292969.046875-.585938.046875-.878907.097656-.78125.09375-1.5625.292969-2.34375.535157-.242187.050781-.4375.148437-.683593.246093-.390625.144532-.730469.292969-1.121094.4375-2.734375 1.269532-5.03125 3.367188-6.59375 5.957032-1.414063 2.292968-2.195313 4.980468-2.195313 7.8125 0 .441406 0 .925781.046876 1.367187.390624 4.636719 2.882812 8.644531 6.496093 11.132813 2.441407 1.710937 5.417969 2.734375 8.691407 2.734375 8.398437 0 15.183593-6.785157 15.183593-15.234375 0-6.054688-3.566406-11.328125-8.738281-13.769532zm0 0"/><path d="m30.320312 55.175781c-8.398437 0-15.183593 6.785157-15.183593 15.183594s6.785156 15.234375 15.183593 15.234375c5.765626 0 10.792969-3.21875 13.332032-7.957031 1.171875-2.148438 1.855468-4.640625 1.855468-7.277344 0-2-.390624-3.855469-1.074218-5.613281-2.199219-5.566406-7.667969-9.570313-14.113282-9.570313zm0 0"/><path d="m30.320312 164.40625c-8.394531 0-15.183593 6.835938-15.183593 15.234375 0 8.394531 6.785156 15.230469 15.183593 15.230469 6.445313 0 11.914063-3.953125 14.164063-9.617188.679687-1.707031 1.070313-3.613281 1.070313-5.613281 0-2.640625-.683594-5.078125-1.851563-7.277344-2.589844-4.738281-7.570313-7.957031-13.382813-7.957031zm0 0"/><path d="m124.707031 30.90625h.292969c3.273438 0 6.25-1.023438 8.691406-2.734375.246094-.144531.441406-.339844.636719-.488281.195313-.144532.4375-.339844.632813-.535156.4375-.390626.878906-.78125 1.269531-1.222657.246093-.242187.441406-.488281.636719-.730469.097656-.148437.242187-.292968.339843-.441406.097657-.097656.148438-.242187.246094-.339844.097656-.097656.144531-.246093.242187-.34375.148438-.242187.292969-.4375.441407-.683593.144531-.242188.292969-.488281.390625-.730469.144531-.246094.242187-.488281.339844-.734375.097656-.242187.246093-.535156.34375-.78125.09375-.242187.195312-.535156.292968-.78125.097656-.292969.144532-.535156.242188-.828125.050781-.246094.097656-.539062.195312-.78125 0-.097656.050782-.148438.050782-.246094.046874-.292968.097656-.535156.097656-.828125 0-.097656.046875-.148437.046875-.195312.050781-.148438.050781-.292969.050781-.441407.046875-.4375.046875-.878906.046875-1.316406 0-8.398437-6.835937-15.234375-15.234375-15.234375s-15.234375 6.785157-15.234375 15.234375c0 3.613282 1.269531 6.933594 3.320313 9.519532 2.78125 3.371093 6.933593 5.570312 11.621093 5.664062zm0 0"/><path d="m133.691406 221.972656c-2.441406-1.707031-5.417968-2.734375-8.640625-2.734375-.097656 0-.195312 0-.292969 0-3.125.050781-6.007812 1.074219-8.398437 2.734375-1.171875.832032-2.246094 1.808594-3.125 2.929688-1.855469 2.292968-3.027344 5.078125-3.320313 8.152344-.050781.441406-.050781.882812-.050781 1.320312 0 8.398438 6.789063 15.136719 15.1875 15.136719 8.347657 0 15.136719-6.785157 15.136719-15.136719 0-.4375-.050781-.878906-.050781-1.320312-.441407-4.585938-2.878907-8.59375-6.445313-11.082032zm0 0"/></g></svg>

<!-- Generator: Adobe Illustrator 23.0.3, SVG Export Plug-In . SVG Version: 6.00 Build 0)  -->
<svg xmlns="http://www.w3.org/2000/svg" xmlns:xlink="http://www.w3.org/1999/xlink" width="250px" height="250px" viewBox="0 0 250 250" version="1.1">
<g id="surface1">
<path style=" stroke:none;fill-rule:nonzero;fill:rgb(3.137255%,3.921569%,1.176471%);fill-opacity:1;" d="M 142.726562 216.648438 C 145.800781 219.726562 148.046875 223.535156 149.171875 227.78125 L 201.953125 197.3125 C 198.875 194.289062 196.632812 190.429688 195.460938 186.179688 Z M 142.726562 216.648438 "/>
<path style=" stroke:none;fill-rule:nonzero;fill:rgb(3.137255%,3.921569%,1.176471%);fill-opacity:1;" d="M 201.953125 52.6875 L 149.171875 22.21875 C 148 26.515625 145.75 30.320312 142.726562 33.398438 L 195.507812 63.867188 C 196.632812 59.570312 198.925781 55.761719 201.953125 52.6875 Z M 201.953125 52.6875 "/>
<path style=" stroke:none;fill-rule:nonzero;fill:rgb(3.137255%,3.921569%,1.176471%);fill-opacity:1;" d="M 55.371094 70.359375 C 55.371094 73.4375 54.835938 76.414062 53.761719 79.148438 C 65.085938 81.152344 77.050781 84.472656 89.210938 88.914062 C 89.746094 84.523438 90.332031 80.175781 91.015625 75.929688 C 78.710938 71.582031 66.550781 68.359375 55.027344 66.308594 C 55.273438 67.625 55.371094 68.992188 55.371094 70.359375 Z M 55.371094 70.359375 "/>
<path style=" stroke:none;fill-rule:nonzero;fill:rgb(3.137255%,3.921569%,1.176471%);fill-opacity:1;" d="M 178.5625 125 C 190.867188 115.039062 201.757812 104.492188 210.742188 93.75 C 206.59375 92.1875 203.027344 89.550781 200.292969 86.179688 C 191.40625 96.726562 180.46875 107.128906 168.066406 116.894531 C 159.328125 110.449219 149.953125 104.347656 140.136719 98.683594 C 132.667969 94.382812 125.148438 90.429688 117.578125 86.867188 C 116.992188 91.308594 116.457031 95.851562 116.066406 100.441406 C 121.972656 103.320312 127.832031 106.496094 133.691406 109.863281 C 141.894531 114.601562 149.804688 119.679688 157.226562 125 C 149.804688 130.324219 141.894531 135.351562 133.691406 140.136719 C 127.832031 143.507812 121.972656 146.632812 116.066406 149.511719 C 116.457031 154.101562 116.945312 158.644531 117.578125 163.085938 C 125.148438 159.523438 132.667969 155.566406 140.136719 151.269531 C 149.953125 145.605469 159.277344 139.503906 168.066406 133.058594 C 180.46875 142.824219 191.359375 153.222656 200.292969 163.769531 C 203.027344 160.402344 206.640625 157.765625 210.742188 156.203125 C 201.757812 145.507812 190.867188 134.960938 178.5625 125 Z M 178.5625 125 "/>
<path style=" stroke:none;fill-rule:nonzero;fill:rgb(3.137255%,3.921569%,1.176471%);fill-opacity:1;" d="M 53.757812 170.851562 C 54.785156 173.585938 55.371094 176.515625 55.371094 179.640625 C 55.371094 181.007812 55.273438 182.375 55.027344 183.738281 C 66.601562 181.738281 78.710938 178.464844 91.015625 174.121094 C 90.332031 169.875 89.695312 165.527344 89.210938 161.132812 C 77.050781 165.476562 65.136719 168.796875 53.757812 170.851562 Z M 53.757812 170.851562 "/>
<path style=" stroke:none;fill-rule:nonzero;fill:rgb(3.137255%,3.921569%,1.176471%);fill-opacity:1;" d="M 107.570312 125 C 107.570312 93.945312 112.355469 64.355469 120.949219 40.378906 C 116.554688 39.648438 112.5 37.792969 109.179688 35.058594 C 99.855469 60.644531 94.679688 92.140625 94.679688 125 C 94.679688 157.859375 99.855469 189.355469 109.179688 214.890625 C 112.5 212.15625 116.503906 210.304688 120.949219 209.570312 C 112.304688 185.644531 107.570312 156.054688 107.570312 125 Z M 107.570312 125 "/>
<path style=" stroke:none;fill-rule:nonzero;fill:rgb(22.745098%,69.803923%,43.137255%);fill-opacity:1;" d="M 133.691406 221.828125 C 131.25 220.070312 128.222656 219.09375 125 219.09375 C 124.902344 219.09375 124.804688 219.09375 124.707031 219.09375 C 121.582031 219.140625 118.703125 220.164062 116.308594 221.828125 C 115.136719 222.65625 114.0625 223.632812 113.183594 224.757812 C 111.328125 227.050781 110.109375 229.882812 109.863281 232.960938 C 109.8125 233.398438 109.8125 233.839844 109.8125 234.277344 C 109.8125 242.675781 116.648438 249.511719 125.050781 249.511719 C 133.445312 249.511719 140.28125 242.726562 140.28125 234.277344 C 140.28125 233.839844 140.234375 233.398438 140.234375 232.960938 C 139.746094 228.367188 137.304688 224.367188 133.691406 221.828125 Z M 133.691406 221.828125 "/>
<path style=" stroke:none;fill-rule:nonzero;fill:rgb(22.745098%,69.803923%,43.137255%);fill-opacity:1;" d="M 213.234375 84.179688 C 213.914062 84.523438 214.601562 84.765625 215.28125 84.960938 C 215.527344 85.058594 215.820312 85.109375 216.0625 85.15625 C 216.453125 85.253906 216.894531 85.351562 217.335938 85.398438 C 218.066406 85.5 218.898438 85.59375 219.679688 85.59375 C 221.972656 85.59375 224.171875 85.058594 226.125 84.179688 C 231.300781 81.738281 234.863281 76.464844 234.863281 70.410156 C 234.863281 62.011719 228.078125 55.175781 219.679688 55.175781 C 216.453125 55.175781 213.425781 56.152344 210.984375 57.910156 C 207.375 60.398438 204.929688 64.453125 204.492188 69.09375 C 204.441406 69.53125 204.441406 69.96875 204.441406 70.460938 C 204.441406 73.339844 205.222656 75.976562 206.640625 78.273438 C 208.15625 80.8125 210.449219 82.859375 213.234375 84.179688 Z M 213.234375 84.179688 "/>
<path style=" stroke:none;fill-rule:nonzero;fill:rgb(22.745098%,69.803923%,43.137255%);fill-opacity:1;" d="M 226.125 165.820312 C 224.171875 164.894531 221.972656 164.40625 219.679688 164.40625 C 219.191406 164.40625 218.703125 164.40625 218.261719 164.503906 C 217.96875 164.550781 217.675781 164.550781 217.382812 164.601562 C 216.601562 164.695312 215.820312 164.894531 215.039062 165.136719 C 214.796875 165.1875 214.601562 165.285156 214.355469 165.382812 C 213.964844 165.527344 213.625 165.675781 213.234375 165.820312 C 210.5 167.089844 208.203125 169.1875 206.640625 171.777344 C 205.226562 174.070312 204.445312 176.757812 204.445312 179.589844 C 204.445312 180.03125 204.445312 180.515625 204.492188 180.957031 C 204.882812 185.59375 207.375 189.601562 210.988281 192.089844 C 213.429688 193.800781 216.40625 194.824219 219.679688 194.824219 C 228.078125 194.824219 234.863281 188.039062 234.863281 179.589844 C 234.863281 173.535156 231.296875 168.261719 226.125 165.820312 Z M 226.125 165.820312 "/>
<path style=" stroke:none;fill-rule:nonzero;fill:rgb(22.745098%,69.803923%,43.137255%);fill-opacity:1;" d="M 30.320312 55.175781 C 21.921875 55.175781 15.136719 61.960938 15.136719 70.359375 C 15.136719 78.757812 21.921875 85.59375 30.320312 85.59375 C 36.085938 85.59375 41.113281 82.375 43.652344 77.636719 C 44.824219 75.488281 45.507812 72.996094 45.507812 70.359375 C 45.507812 68.359375 45.117188 66.503906 44.433594 64.746094 C 42.234375 59.179688 36.765625 55.175781 30.320312 55.175781 Z M 30.320312 55.175781 "/>
<path style=" stroke:none;fill-rule:nonzero;fill:rgb(22.745098%,69.803923%,43.137255%);fill-opacity:1;" d="M 30.320312 164.40625 C 21.925781 164.40625 15.136719 171.242188 15.136719 179.640625 C 15.136719 188.035156 21.921875 194.871094 30.320312 194.871094 C 36.765625 194.871094 42.234375 190.917969 44.484375 185.253906 C 45.164062 183.546875 45.554688 181.640625 45.554688 179.640625 C 45.554688 177 44.871094 174.5625 43.703125 172.363281 C 41.113281 167.625 36.132812 164.40625 30.320312 164.40625 Z M 30.320312 164.40625 "/>
<path style=" stroke:none;fill-rule:nonzero;fill:rgb(22.745098%,69.803923%,43.137255%);fill-opacity:1;" d="M 124.707031 30.90625 L 125 30.90625 C 128.273438 30.90625 131.25 29.882812 133.691406 28.171875 C 133.9375 28.027344 134.132812 27.832031 134.328125 27.683594 C 134.523438 27.539062 134.765625 27.34375 134.960938 27.148438 C 135.398438 26.757812 135.839844 26.367188 136.230469 25.925781 C 136.476562 25.683594 136.671875 25.4375 136.867188 25.195312 C 136.964844 25.046875 137.109375 24.902344 137.207031 24.753906 C 137.304688 24.65625 137.355469 24.511719 137.453125 24.414062 C 137.550781 24.316406 137.597656 24.167969 137.695312 24.070312 C 137.84375 23.828125 137.988281 23.632812 138.136719 23.386719 C 138.28125 23.144531 138.429688 22.898438 138.527344 22.65625 C 138.671875 22.410156 138.769531 22.167969 138.867188 21.921875 C 138.964844 21.679688 139.113281 21.386719 139.210938 21.140625 C 139.304688 20.898438 139.40625 20.605469 139.503906 20.359375 C 139.601562 20.066406 139.648438 19.824219 139.746094 19.53125 C 139.796875 19.285156 139.84375 18.992188 139.941406 18.75 C 139.941406 18.652344 139.992188 18.601562 139.992188 18.503906 C 140.039062 18.210938 140.089844 17.96875 140.089844 17.675781 C 140.089844 17.578125 140.136719 17.527344 140.136719 17.480469 C 140.1875 17.332031 140.1875 17.1875 140.1875 17.039062 C 140.234375 16.601562 140.234375 16.160156 140.234375 15.722656 C 140.234375 7.324219 133.398438 0.488281 125 0.488281 C 116.601562 0.488281 109.765625 7.273438 109.765625 15.722656 C 109.765625 19.335938 111.035156 22.65625 113.085938 25.242188 C 115.867188 28.613281 120.019531 30.8125 124.707031 30.90625 Z M 124.707031 30.90625 "/>
<path style=" stroke:none;fill-rule:nonzero;fill:rgb(22.745098%,69.803923%,43.137255%);fill-opacity:1;" d="M 133.691406 221.972656 C 131.25 220.265625 128.273438 219.238281 125.050781 219.238281 C 124.953125 219.238281 124.855469 219.238281 124.757812 219.238281 C 121.632812 219.289062 118.75 220.3125 116.359375 221.972656 C 115.1875 222.804688 114.113281 223.78125 113.234375 224.902344 C 111.378906 227.195312 110.207031 229.980469 109.914062 233.054688 C 109.863281 233.496094 109.863281 233.9375 109.863281 234.375 C 109.863281 242.773438 116.652344 249.511719 125.050781 249.511719 C 133.398438 249.511719 140.1875 242.726562 140.1875 234.375 C 140.1875 233.9375 140.136719 233.496094 140.136719 233.054688 C 139.695312 228.46875 137.257812 224.460938 133.691406 221.972656 Z M 133.691406 221.972656 "/>
</g>
</svg>
